src/icons/command-install.svg

<svg enable-background="new 0 0 14 14" viewBox="0 0 14 14" xmlns="http://www.w3.org/2000/svg"><path d="m6.4 10.2c.2.2.4.3.6.3s.5-.1.6-.3l3.5-3.5c.2-.2.3-.4.3-.6 0-.5-.4-.9-.9-.9-.2 0-.5.1-.6.3l-2 2v-6.6c0-.5-.4-.9-.9-.9s-.9.4-.9.9v6.6l-2-2c-.1-.2-.4-.3-.6-.3-.5 0-.9.4-.9.9 0 .2.1.5.3.6zm6.7-.6c-.5 0-.9.4-.9.9v1.8h-10.4v-1.8c0-.5-.4-.9-.9-.9s-.9.4-.9.9v2.6c0 .5.4.9.9.9h12.2c.5 0 .9-.4.9-.9v-2.6c0-.5-.4-.9-.9-.9z" fill="#4d5969"/></svg>

<?xml version="1.0" encoding="utf-8"?>
<!-- Generator: Adobe Illustrator 20.1.0, SVG Export Plug-In . SVG Version: 6.00 Build 0)  -->
<svg version="1.1" id="Layer_1" xmlns="http://www.w3.org/2000/svg" xmlns:xlink="http://www.w3.org/1999/xlink" x="0px" y="0px"
	 viewBox="0 0 14 14" style="enable-background:new 0 0 14 14;" xml:space="preserve">
<style type="text/css">
	.st0{fill:#4D5969;}
</style>
<title>HDL/Icon/Standard/Command/install</title>
<desc>Created with Sketch.</desc>
<g id="Colors">
	<g id="Command-Icons" transform="translate(-122.000000, -547.000000)">
		<g id="Install" transform="translate(101.000000, 529.000000)">
			<g id="HDL_x2F_Icon_x2F_Standard_x2F_Command_x2F_install" transform="translate(21.000000, 18.000000)">
				<path id="Shape" class="st0" d="M6.4,10.2c0.2,0.2,0.4,0.3,0.6,0.3s0.5-0.1,0.6-0.3l3.5-3.5c0.2-0.2,0.3-0.4,0.3-0.6
					c0-0.5-0.4-0.9-0.9-0.9c-0.2,0-0.5,0.1-0.6,0.3l-2,2V0.9C7.9,0.4,7.5,0,7,0S6.1,0.4,6.1,0.9v6.6l-2-2C4,5.3,3.7,5.2,3.5,5.2
					C3,5.2,2.6,5.6,2.6,6.1c0,0.2,0.1,0.5,0.3,0.6L6.4,10.2z M13.1,9.6c-0.5,0-0.9,0.4-0.9,0.9v1.8H1.8v-1.8c0-0.5-0.4-0.9-0.9-0.9
					S0,10,0,10.5v2.6C0,13.6,0.4,14,0.9,14h12.2c0.5,0,0.9-0.4,0.9-0.9v-2.6C14,10,13.6,9.6,13.1,9.6z"/>
			</g>
		</g>
	</g>
</g>
</svg>
